X: 664
T: Jian lantan
L: 1/8
M: 4/4
K: F
f2e dc2A c [I:setbarnb 1]| 
f2e d B A G A | 
c2d f d f c B | 
A G D FG4 | 
c2B Af2f d | 
c2c d F E D C | 
c2d f c B G A | 
GD2CD4 |]

@@@ Tune index: 9538
